!!!!SEGMENT: pl-cz--ii-184--001-004_neumann-wawrzyniec--vesperae-de-apostolis-in-c-in-convertendo.krn
!!!cenid: 17xx:1002
!!!COM: Neumann, Wawrzyniec
!!!COM-rismID: pe30107352
!!!CDT: ~1700-~1799
!!!CNT:
!!!OPR: Vesperae de Apostolis in C
!!!OTL: In convertendo
!!!OMV: 004
!!!PDT:
!!!AGN: Sacred; Vespers
!!!SMS-siglum: PL-CZ
!!!SMS-shelfmark: II-184
!!!SMS-shelfwork: 001-004 M
!!!SMS-variant:
!!!SMS-altvar:
!!!NIFC-rismSourceID: 300000912
!!!NIFC-islandoraID: pl-cz:32706
!!!URL-pdf-islandora: https://repozytorium.nifc.pl/islandora/object/pl-cz%3A32706/datastream/PDF/view
!!!URL-scan:
!!!ONB-nifc: UWAGA: części Vesperae: Dixit Dominus, Laudate pueri, Credidi, In convertendo, Domine probasti me, Magnificat
!!!AIN: 1 alto 1 bass 2 clars 1 organ 1 soprn 1 tenor 2 violn
!!!key: D
**kern	**fba	**kern	**dynam	**kern	**dynam	**kern	**text	**kern	**text	**kern	**text	**kern	**text	**kern	**kern
*part9	*part9	*part8	*part8	*part7	*part7	*part6	*part6	*part5	*part5	*part4	*part4	*part3	*part3	*part2	*part1
*staff9	*staff9	*staff8	*	*staff7	*	*staff6	*staff6	*staff5	*staff5	*staff4	*staff4	*staff3	*staff3	*staff2	*staff1
*I"Organo	*	*I"Violino Secondo.	*	*I"Violino. Primo.	*	*I"Basſo.	*	*I"Tenore.	*	*I"Alto	*	*I"Canto	*	*I"Clarino Secondo ad libitum.	*I"Clarino Primo ad libitum
*I'org	*	*I'vl II	*	*I'vl I	*	*I'B	*	*I'T	*	*I'A	*	*I'C	*	*I'clno II	*I'clno I
*Iorgan	*	*Ivioln	*	*Ivioln	*	*Ibass	*	*Itenor	*	*Ialto	*	*Isoprn	*	*Iclars	*Iclars
*ICklav	*	*ICstr	*	*ICstr	*	*ICvox	*	*ICvox	*	*ICvox	*	*ICvox	*	*ICww	*ICww
*IGbc	*	*	*	*	*	*	*	*	*	*	*	*	*	*	*
*clefF4	*	*clefG2	*	*clefG2	*	*clefF4	*	*clefC4	*	*clefC3	*	*clefC1	*	*clefG2	*clefG2
*k[f#c#]	*	*k[f#c#]	*	*k[f#c#]	*	*k[f#c#]	*	*k[c#f#]	*	*k[f#c#]	*	*k[f#c#]	*	*k[f#c#]	*k[f#c#]
*D:	*	*D:	*	*D:	*	*D:	*	*D:	*	*D:	*	*D:	*	*D:	*D:
*M4/4	*	*M4/4	*	*M4/4	*	*M4/4	*	*M4/4	*	*M4/4	*	*M4/4	*	*M4/4	*M4/4
*met(c)	*	*met(c)	*	*met(c)	*	*met(c)	*	*met(c)	*	*met(c)	*	*met(c)	*	*met(c)	*met(c)
=1	=1	=1	=1	=1	=1	=1	=1	=1	=1	=1	=1	=1	=1	=1	=1
*all\right	*	*all\right	*	*all\right	*	*all\right	*	*all\right	*	*all\right	*	*all\right	*	*all\right	*all\right
*2\right	*	*2\right	*	*2\right	*	*2\right	*	*2\right	*	*2\right	*	*2\right	*	*2\right	*2\right
!	!	!	!	!LO:TX:t=P:f = f:global:problem	!	!	!	!	!	!	!	!	!	!	!
!LO:TX:a:t=T&colon;	!	!LO:TX:t=P:problem=mixed beam	!	!LO:TX:t=P:problem=mixed beam	!	!	!	!LO:TX:t=P:problem=kolejność znaków c# F#	!	!	!	!	!	!	!
!	!	!LO:TX:a:B:t=Allo. mod&colon;	!LO:DY:a:t=f&colon;	!LO:TX:a:B:t=Allo&colon; mo&colon;	!LO:DY:a:t=f&colon;	!LO:TX:a:t=29.	!	!	!	!	!	!LO:TX:a:t=29&colon;	!	!LO:TX:t=P:problem=partia nie występuje w części "In Convertendo"	!LO:TX:t=P:problem=partia nie występuje w części "In Convertendo"
8D|\L	.	8d/L	f	8d/L	f	1r	.	1r	.	1r	.	1r	.	1ryy	1ryy
16.d|\L	.	16.dd\L	.	16.dd\L	.	.	.	.	.	.	.	.	.	.	.
32c#|\JJk	.	32cc#\JJk	.	32cc#\JJk	.	.	.	.	.	.	.	.	.	.	.
8B|\L	.	8b/L	.	8b/L	.	.	.	.	.	.	.	.	.	.	.
16.G|\L	.	16.g/L	.	16.g/L	.	.	.	.	.	.	.	.	.	.	.
32F#|\JJk	.	32f#/JJk	.	32f#/JJk	.	.	.	.	.	.	.	.	.	.	.
4E|\	.	8e/L	.	8e/L	.	.	.	.	.	.	.	.	.	.	.
.	.	16.f#/L	.	16.f#/L	.	.	.	.	.	.	.	.	.	.	.
.	.	32g/JJk	.	32g/JJk	.	.	.	.	.	.	.	.	.	.	.
*	*	*Xtuplet	*	*Xtuplet	*	*	*	*	*	*	*	*	*	*	*
8r	.	24a/LL	.	24a/LL	.	.	.	.	.	.	.	.	.	.	.
.	.	24g/	.	24g/	.	.	.	.	.	.	.	.	.	.	.
.	.	24f#/JJ	.	24f#/JJ	.	.	.	.	.	.	.	.	.	.	.
!LO:TX:a:t=S&colon;	!	!	!	!	!	!	!	!	!	!	!	!	!	!	!
8AA/	.	24e/LL	.	24e/LL	.	.	.	.	.	.	.	.	.	.	.
.	.	24d/	.	24d/	.	.	.	.	.	.	.	.	.	.	.
.	.	24c#/JJ	.	24c#/JJ	.	.	.	.	.	.	.	.	.	.	.
=2	=2	=2	=2	=2	=2	=2	=2	=2	=2	=2	=2	=2	=2	=2	=2
!	!	!	!	!LO:TX:t=P:problem=mixed beam	!	!	!	!	!	!	!	!	!	!	!
!	!	!LO:TX:t=P:problem=mixed beam	!	!	!LO:DY:a:t=p&colon;	!	!	!	!	!LO:TX:a:t=S&colon;	!	!	!	!	!
4D\	.	8d/L	.	8d/L	p	1r	.	1r	.	8r	.	1r	.	1ryy	1ryy
!	!	!	!LO:DY:a:t=p&colon;	!	!	!	!	!	!	!	!	!	!	!	!
.	.	8f#/	p	8dd\	.	.	.	.	.	8d\	In	.	.	.	.
8r	.	8dd\	.	8ff#\	.	.	.	.	.	8f#\	con-	.	.	.	.
8D\	.	8ff#\J	.	8aa\J	.	.	.	.	.	8a\	-ver-	.	.	.	.
8AA/L	6 4	8ff#\L	.	8aa\L	.	.	.	.	.	8a\L	-ten-	.	.	.	.
8C#/	5	8ee\	.	8gg\J	.	.	.	.	.	8g\J	.	.	.	.	.
8D/	.	8dd\	.	8ff#\L	.	.	.	.	.	4f#\	-do	.	.	.	.
8BB/J	.	8ff#\J	.	16ddd\L	.	.	.	.	.	.	.	.	.	.	.
.	.	.	.	16aa\JJ	.	.	.	.	.	.	.	.	.	.	.
=3	=3	=3	=3	=3	=3	=3	=3	=3	=3	=3	=3	=3	=3	=3	=3
8AA/L	6 4	8ff#\L	.	8aa\L	.	1r	.	1r	.	(8a\	Do-	1r	.	1ryy	1ryy
8C#/	5	8ee\	.	8gg\	.	.	.	.	.	16g\)	.	.	.	.	.
.	.	.	.	.	.	.	.	.	.	16g\	-mi-	.	.	.	.
8D/	.	8dd\	.	8ff#\	.	.	.	.	.	8f#\	-nus	.	.	.	.
8F#/J	6	8dd\J	.	8aa\J	.	.	.	.	.	8d\	cap-	.	.	.	.
4G\	.	4dd\	.	8bb\L	.	.	.	.	.	8b\	-ti-	.	.	.	.
.	.	.	.	8b\	.	.	.	.	.	8g\	-vi-	.	.	.	.
8r	.	8g/L	.	8ee\	.	.	.	.	.	8e\	-ta-	.	.	.	.
8G\	.	8f#/J	.	8dd\J	.	.	.	.	.	8d\	-tem	.	.	.	.
!	!	!	!	!	!	!	!	!	!	!LO:LB:g=original	!	!	!	!	!
=4	=4	=4	=4	=4	=4	=4	=4	=4	=4	=4	=4	=4	=4	=4	=4
8A\L	.	8e/L	.	8cc#\L	.	1r	.	1r	.	8c#\	Si-	1r	.	1ryy	1ryy
8D\J	.	8f#/	.	8dd\	.	.	.	.	.	8d\	-on	.	.	.	.
8r	.	8f#/	.	8dd\	.	.	.	.	.	16d\LL	fac-	.	.	.	.
.	.	.	.	.	.	.	.	.	.	16e\JJ	.	.	.	.	.
8D\	.	8f#/J	.	8dd\J	.	.	.	.	.	8f#\	-ti	.	.	.	.
!LO:TX:t=P:problem=mixed beam	!	!LO:LB:g=original	!	!LO:LB:g=original	!	!	!	!	!	!	!	!	!	!	!
8A\L	4:3	8f#/L	.	8dd\L	.	.	.	.	.	8f#\	su-	.	.	.	.
8AA/J	.	8e/	.	8cc#\	.	.	.	.	.	8e\	-mus	.	.	.	.
8r	.	8g/	.	8cc#\	.	.	.	.	.	16e\LL	su-	.	.	.	.
.	.	.	.	.	.	.	.	.	.	16f#\JJ	.	.	.	.	.
8C#/	.	8g/J	.	8ee\J	.	.	.	.	.	8g\	-mus	.	.	.	.
!LO:LB:g=original	!	!	!	!	!	!	!	!	!	!	!	!	!	!	!
=5	=5	=5	=5	=5	=5	=5	=5	=5	=5	=5	=5	=5	=5	=5	=5
8D\L	4:3 9:8	8g/L	.	8ee\L	.	1r	.	1r	.	8g\	si-	1r	.	1ryy	1ryy
8D\	.	8f#/	.	8dd\	.	.	.	.	.	8f#\	-cut	.	.	.	.
8F#\	.	8d/	.	8dd\	.	.	.	.	.	8a\	con-	.	.	.	.
8F#\J	.	8d/J	.	8dd\J	.	.	.	.	.	8a\	-so-	.	.	.	.
8C#/	.	8g/	.	8ee\	.	.	.	.	.	16g\LL	-la-	.	.	.	.
.	.	.	.	.	.	.	.	.	.	16b\	.	.	.	.	.
8r	.	8r	.	8r	.	.	.	.	.	16g\	.	.	.	.	.
.	.	.	.	.	.	.	.	.	.	16e\JJ	.	.	.	.	.
8D/	.	8f#/	.	8dd\	.	.	.	.	.	16f#\LL	.	.	.	.	.
.	.	.	.	.	.	.	.	.	.	16a\	.	.	.	.	.
8r	.	8r	.	8r	.	.	.	.	.	16f#\	.	.	.	.	.
.	.	.	.	.	.	.	.	.	.	16d\JJ	.	.	.	.	.
=6	=6	=6	=6	=6	=6	=6	=6	=6	=6	=6	=6	=6	=6	=6	=6
8AA/	.	8cc#\L	.	8ee\L	.	1r	.	1r	.	16c#\LL	.	1r	.	1ryy	1ryy
.	.	.	.	.	.	.	.	.	.	16d\	.	.	.	.	.
8r	.	8cc#\	.	8ee\	.	.	.	.	.	16e\	.	.	.	.	.
.	.	.	.	.	.	.	.	.	.	16f#\JJ	.	.	.	.	.
8AA/	6 4:5	8cc#\	.	8ee\	.	.	.	.	.	16g\LL	.	.	.	.	.
.	.	.	.	.	.	.	.	.	.	16e\	.	.	.	.	.
!LO:N:vis=4	!	!LO:TX:a:t=d	!	!	!	!	!	!	!	!	!	!	!	!	!
4.AA/	.	8dd\J	.	8dd\J	.	.	.	.	.	16f#\	.	.	.	.	.
.	.	.	.	.	.	.	.	.	.	16d\JJ	.	.	.	.	.
!	!	!	!	!	!	!	!	!	!	!LO:LB:g=original	!	!	!	!	!
.	.	8ee\L	.	8gg\L	.	.	.	.	.	16c#\LL	.	.	.	.	.
.	.	.	.	.	.	.	.	.	.	16d\	.	.	.	.	.
.	.	8cc#\	.	8ee\	.	.	.	.	.	16e\	.	.	.	.	.
.	.	.	.	.	.	.	.	.	.	16f#\JJ	.	.	.	.	.
8r	.	8cc#\	.	8ee\	.	.	.	.	.	16g\LL	.	.	.	.	.
.	.	.	.	.	.	.	.	.	.	16e\	.	.	.	.	.
8AA/	6 4	8dd\J	.	8dd\J	.	.	.	.	.	16f#\	.	.	.	.	.
.	.	.	.	.	.	.	.	.	.	16d\JJ	.	.	.	.	.
=7	=7	=7	=7	=7	=7	=7	=7	=7	=7	=7	=7	=7	=7	=7	=7
!LO:TX:t=P:problem=mixed beam	!	!	!	!	!	!	!	!	!	!	!	!	!	!	!
8AA/L	.	8f#/L	.	8dd\L	.	1r	.	1r	.	16a\LL	.	1r	.	1ryy	1ryy
.	.	.	.	.	.	.	.	.	.	16f#\JJ	.	.	.	.	.
8A\	5	8e/J	.	8cc#\J	.	.	.	.	.	8e\	-ti	.	.	.	.
!	!	!LO:N:vis=8	!	!	!	!	!	!	!	!	!	!	!	!	!
8E\	.	4e/	.	16c#/LL	.	.	.	.	.	4r	.	.	.	.	.
.	.	.	.	16d/	.	.	.	.	.	.	.	.	.	.	.
8C#\J	.	.	.	16e/	.	.	.	.	.	.	.	.	.	.	.
.	.	.	.	16g#X/JJ	.	.	.	.	.	.	.	.	.	.	.
4AA/	.	8e/	.	8a/L	.	.	.	.	.	8a\	Tunc	.	.	.	.
.	.	8A/	.	8a/J	.	.	.	.	.	8a\	re-	.	.	.	.
4r	.	8f#/L	.	8a/L	.	.	.	.	.	8a\	-ple-	.	.	.	.
.	.	16e/L	.	16g#X/L	.	.	.	.	.	16g#X\	-tum	.	.	.	.
.	.	16d/JJ	.	16f#/JJ	.	.	.	.	.	16f#\	eſt	.	.	.	.
=8	=8	=8	=8	=8	=8	=8	=8	=8	=8	=8	=8	=8	=8	=8	=8
8E\L	6 4	8c#/L	.	8e/L	.	1r	.	1r	.	8e\	ga-	1r	.	1ryy	1ryy
16F#\L	6	8B/J	.	8d/J	.	.	.	.	.	16d\	-u-	.	.	.	.
16G#X\JJ	.	.	.	.	.	.	.	.	.	16d\	-di-	.	.	.	.
!	!	!	!	!LO:TX:t=P:problem=mixed beam	!	!	!	!	!	!	!	!	!	!	!
4A\	.	8A/L	.	8c#/L	.	.	.	.	.	8c#\	-o	.	.	.	.
.	.	16a/L	.	16cc#\L	.	.	.	.	.	16a\LL	os	.	.	.	.
.	.	16f#/JJ	.	16dd\JJ	.	.	.	.	.	16f#\JJ	.	.	.	.	.
!	!	!LO:TX:t=P:problem=mixed beam	!	!	!	!	!	!	!	!	!	!	!	!	!
8r	.	8e/L	.	8cc#\L	.	.	.	.	.	8e\L	nos-	.	.	.	.
8G#X\	.	8d/	.	8b\	.	.	.	.	.	8d\J	.	.	.	.	.
!LO:TX:t=P:problem=mixed beam	!	!	!	!	!	!	!	!	!	!	!	!	!	!	!
8A\L	.	8c#/	.	8a\	.	.	.	.	.	4c#\	-trum	.	.	.	.
8AA/J	.	8cc#\J	.	8aa\J	.	.	.	.	.	.	.	.	.	.	.
!	!	!	!	!LO:LB:g=original	!	!	!	!	!	!	!	!	!	!	!
=9	=9	=9	=9	=9	=9	=9	=9	=9	=9	=9	=9	=9	=9	=9	=9
4E\	#	4b\	.	4gg#X\	.	1r	.	1r	.	8r	.	1r	.	1ryy	1ryy
!	!	!	!	!	!	!	!	!	!	!LO:LB:g=original	!	!	!	!	!
.	.	.	.	.	.	.	.	.	.	8e\	et	.	.	.	.
4r	.	4r	.	4r	.	.	.	.	.	8g#X\	lin-	.	.	.	.
.	.	.	.	.	.	.	.	.	.	8a\	-gu-	.	.	.	.
!	!	!LO:LB:g=original	!	!	!	!	!	!	!	!	!	!	!	!	!
8G#X\L	.	8dd\L	.	8bb\L	.	.	.	.	.	16dd\LL	-a	.	.	.	.
.	.	.	.	.	.	.	.	.	.	16cc#\JJ	.	.	.	.	.
8G#\	.	8dd\	.	8bb\	.	.	.	.	.	16b\LL	nos-	.	.	.	.
.	.	.	.	.	.	.	.	.	.	16a\JJ	.	.	.	.	.
8G#\	.	8dd\	.	8bb\	.	.	.	.	.	16g#X\LL	.	.	.	.	.
.	.	.	.	.	.	.	.	.	.	16f#\JJ	.	.	.	.	.
8G#\J	.	8dd\J	.	8bb\J	.	.	.	.	.	8e\	-tra	.	.	.	.
!LO:LB:g=original	!	!	!	!	!	!	!	!	!	!	!	!	!	!	!
=10	=10	=10	=10	=10	=10	=10	=10	=10	=10	=10	=10	=10	=10	=10	=10
8A\L	.	8cc#\L	.	8aa\L	.	1r	.	1r	.	8cc#\	e-	1r	.	1ryy	1ryy
16G#X\L	.	16dd\L	.	16bb\L	.	.	.	.	.	16b\LL	-xul-	.	.	.	.
16A\JJ	.	16cc#\JJ	.	16aa\JJ	.	.	.	.	.	16cc#\JJ	.	.	.	.	.
4D\	6:5	8dd\L	.	8bb\L	.	.	.	.	.	16dd\LL	-ta-	.	.	.	.
.	.	.	.	.	.	.	.	.	.	16b\JJ	.	.	.	.	.
.	.	8cc#\J	.	8aa\J	.	.	.	.	.	16cc#\LL	-ti-	.	.	.	.
.	.	.	.	.	.	.	.	.	.	16a\JJ	.	.	.	.	.
!	!	!	!	!LO:TX:t=P:problem=mixed beam	!	!	!	!	!	!	!	!	!	!	!
8E\L	4	8cc#\	.	8aa\L	.	.	.	.	.	8cc#\	-o-	.	.	.	.
16E\L	#	4b\	.	8gg#X\	.	.	.	.	.	8b\	-ne	.	.	.	.
16F#\JJ	.	.	.	.	.	.	.	.	.	.	.	.	.	.	.
8E\L	.	.	.	8e/	.	.	.	.	.	8r	.	.	.	.	.
8C#\J	6	8a/	.	8e/J	.	.	.	.	.	8e\	tunc	.	.	.	.
=11	=11	=11	=11	=11	=11	=11	=11	=11	=11	=11	=11	=11	=11	=11	=11
!	!	!	!	!LO:TX:t=P:problem=mixed beam	!	!	!	!	!	!LO:SIC:v:t=dic-	!	!	!	!	!
4D\	.	8a/L	.	8f#/L	.	1r	.	1r	.	8f#\	de-	1r	.	1ryy	1ryy
!	!	!	!	!	!	!	!	!	!	!LO:SIC:v:t=-ent	!	!	!	!	!
.	.	8f#/J	.	8dd\J	.	.	.	.	.	8dd\	-cet	.	.	.	.
4E\	4#r	16e/LL	.	16cc#\LL	.	.	.	.	.	16cc#\LL	in-	.	.	.	.
.	.	16d/	.	16b\	.	.	.	.	.	16b\JJ	.	.	.	.	.
.	.	16c#/	.	16a\	.	.	.	.	.	16a\LL	-ter	.	.	.	.
.	.	16B/JJ	.	16g#X\JJ	.	.	.	.	.	16g#X\JJ	.	.	.	.	.
!	!	!	!	!	!	!	!	!	!	!LO:LB:g=original	!	!	!	!	!
8AA/L	.	8c#/L	.	16a/LL	.	.	.	.	.	16a\LL	gen-	.	.	.	.
.	.	.	.	16g#/J	.	.	.	.	.	16g#X\JJ	.	.	.	.	.
8BB/	.	8d/	.	8a/J	.	.	.	.	.	8a\	-tes	.	.	.	.
8C#/	.	8e/	.	16a\LL	.	.	.	.	.	4r	.	.	.	.	.
.	.	.	.	16b\	.	.	.	.	.	.	.	.	.	.	.
8AA/J	.	8c#/J	.	16cc#\	.	.	.	.	.	.	.	.	.	.	.
.	.	.	.	16dd\JJ	.	.	.	.	.	.	.	.	.	.	.
=12	=12	=12	=12	=12	=12	=12	=12	=12	=12	=12	=12	=12	=12	=12	=12
!	!	!	!	!	!	!	!	!	!	!LO:TX:t=P:problem=2\right&colon; global	!	!	!	!	!
.	.	.	.	8qqcc#/	.	.	.	.	.	.	.	.	.	.	.
8r	.	16c#/LL	.	2ee\	.	1r	.	1r	.	2e\	Ma-	1r	.	1ryy	1ryy
.	.	16e/	.	.	.	.	.	.	.	.	.	.	.	.	.
8C#/L	6	16a/	.	.	.	.	.	.	.	.	.	.	.	.	.
.	.	16e/JJ	.	.	.	.	.	.	.	.	.	.	.	.	.
8C#/	.	16A/LL	.	.	.	.	.	.	.	.	.	.	.	.	.
.	.	16e/	.	.	.	.	.	.	.	.	.	.	.	.	.
8C#/J	.	16a/	.	.	.	.	.	.	.	.	.	.	.	.	.
.	.	16A/JJ	.	.	.	.	.	.	.	.	.	.	.	.	.
8C#/L	.	8e/L	.	8.aa\L	.	.	.	.	.	8.a\	-gni-	.	.	.	.
8C#/	.	8e/	.	.	.	.	.	.	.	.	.	.	.	.	.
.	.	.	.	16gg#X\Jk	.	.	.	.	.	16g#X\	-fi-	.	.	.	.
8D/	.	8a/	.	4ff#\	.	.	.	.	.	8f#\	-ca-	.	.	.	.
8D/J	.	8a/J	.	.	.	.	.	.	.	8f#\	-vit	.	.	.	.
=13	=13	=13	=13	=13	=13	=13	=13	=13	=13	=13	=13	=13	=13	=13	=13
!	!	!LO:TX:t=P:problem=mixed beam	!	!	!	!	!	!	!	!	!	!	!	!	!
8D\L	.	16f#/LL	.	8.ddd\L	.	1r	.	1r	.	8.dd\	Do-	1r	.	1ryy	1ryy
.	.	16ff#\	.	.	.	.	.	.	.	.	.	.	.	.	.
8D\	.	16f#/	.	.	.	.	.	.	.	.	.	.	.	.	.
.	.	16ff#\JJ	.	16ccc#\Jk	.	.	.	.	.	16cc#\	-mi-	.	.	.	.
!	!	!LO:TX:t=P:problem=mixed beam	!	!	!	!	!	!	!	!	!	!	!	!	!
8D\	6	16f#/LL	.	4bb\	.	.	.	.	.	4b\	-nus	.	.	.	.
.	.	16ff#\	.	.	.	.	.	.	.	.	.	.	.	.	.
8D\J	.	16f#/	.	.	.	.	.	.	.	.	.	.	.	.	.
.	.	16ff#\JJ	.	.	.	.	.	.	.	.	.	.	.	.	.
!	!	!	!	!LO:LB:g=original	!	!	!	!	!	!	!	!	!	!	!
!	!	!LO:TX:t=P:problem=mixed beam	!	!	!	!	!	!	!	!	!	!	!	!	!
8C#\L	6	8ee\L	.	8aa\	.	.	.	.	.	8e\	fa-	.	.	.	.
8C#\	.	8e/	.	4aa\	.	.	.	.	.	8e\	-ce-	.	.	.	.
8D\	.	8f#/	.	.	.	.	.	.	.	16f#\LL	-re	.	.	.	.
.	.	.	.	.	.	.	.	.	.	16d\JJ	.	.	.	.	.
8D\J	.	8dd\J	.	8ff#\	.	.	.	.	.	16dd\LL	cum	.	.	.	.
.	.	.	.	.	.	.	.	.	.	16b\JJ	.	.	.	.	.
!	!	!LO:LB:g=original	!	!	!	!	!	!	!	!	!	!	!	!	!
=14	=14	=14	=14	=14	=14	=14	=14	=14	=14	=14	=14	=14	=14	=14	=14
8E\L	6_ 4_	8cc#\L	.	16ee\LL	.	1r	.	1r	.	4.a\	e-	1r	.	1ryy	1ryy
.	.	.	.	16aa\	.	.	.	.	.	.	.	.	.	.	.
8E\	.	8cc#\	.	16cc#\	.	.	.	.	.	.	.	.	.	.	.
.	.	.	.	16aa\JJ	.	.	.	.	.	.	.	.	.	.	.
8E\	.	8cc#\	.	16ee\LL	.	.	.	.	.	.	.	.	.	.	.
.	.	.	.	16aa\	.	.	.	.	.	.	.	.	.	.	.
8E\J	.	8cc#\J	.	16cc#\	.	.	.	.	.	8e\	.	.	.	.	.
.	.	.	.	16aa\JJ	.	.	.	.	.	.	.	.	.	.	.
8E\L	5 x	8b\L	.	16b\LL	.	.	.	.	.	2b\	.	.	.	.	.
.	.	.	.	16aa\	.	.	.	.	.	.	.	.	.	.	.
8E\	.	8aa\	.	16b\	.	.	.	.	.	.	.	.	.	.	.
.	.	.	.	16aa\JJ	.	.	.	.	.	.	.	.	.	.	.
8E\	.	8b\	.	16b\LL	.	.	.	.	.	.	.	.	.	.	.
.	.	.	.	16gg#X\	.	.	.	.	.	.	.	.	.	.	.
8E\J	#	8gg#X\J	.	16b\	.	.	.	.	.	.	.	.	.	.	.
.	.	.	.	16gg#\JJ	.	.	.	.	.	.	.	.	.	.	.
!LO:LB:g=original	!	!	!	!	!	!	!	!	!	!	!	!	!	!	!
=15	=15	=15	=15	=15	=15	=15	=15	=15	=15	=15	=15	=15	=15	=15	=15
!	!	!	!	!LO:TX:t=P:problem=mixed beam	!LO:DY:a:t=f&colon;	!	!	!	!	!	!	!	!	!	!
4AA/	.	4A/	.	8A/L	f	1r	.	1r	.	4a\	-is	1r	.	1ryy	1ryy
.	.	.	.	8a\	.	.	.	.	.	.	.	.	.	.	.
8r	.	8r	.	8cc#\	.	.	.	.	.	4r	.	.	.	.	.
8AA/	.	8cc#\	.	8ee\J	.	.	.	.	.	.	.	.	.	.	.
!	!	!	!LO:DY:a:t=f&colon;	!	!	!	!	!	!	!	!	!	!	!	!
.	.	8qqcc#/	f	8qqee/	.	.	.	.	.	.	.	.	.	.	.
8BB/L	7	4b\	.	4dd\	.	.	.	.	.	2r	.	.	.	.	.
8E/J	#	.	.	.	.	.	.	.	.	.	.	.	.	.	.
4AA/	.	8a\L	.	8cc#\L	.	.	.	.	.	.	.	.	.	.	.
.	.	16cc#\L	.	24aa\L	.	.	.	.	.	.	.	.	.	.	.
.	.	.	.	24gg#X\	.	.	.	.	.	.	.	.	.	.	.
!	!	!	!LO:DY:a:t=p&colon;	!	!	!	!	!	!	!	!	!	!	!	!
.	.	16dd\JJ	p	.	.	.	.	.	.	.	.	.	.	.	.
.	.	.	.	24ff#\JJ	.	.	.	.	.	.	.	.	.	.	.
!	!	!	!	!	!	!	!	!	!	!LO:LB:g=original	!	!	!	!	!
=16	=16	=16	=16	=16	=16	=16	=16	=16	=16	=16	=16	=16	=16	=16	=16
.	.	8qqcc#/	.	8qqee/	.	.	.	.	.	.	.	.	.	.	.
8r	.	4b\	.	4dd\	.	1r	.	1r	.	1r	.	1r	.	1ryy	1ryy
16F#\LL	6 4	.	.	.	.	.	.	.	.	.	.	.	.	.	.
16G#X\JJ	.	.	.	.	.	.	.	.	.	.	.	.	.	.	.
!LO:TX:t=P:problem=mixed beam	!	!	!	!	!	!	!	!	!	!	!	!	!	!	!
8A\L	.	4a\	.	4cc#\	.	.	.	.	.	.	.	.	.	.	.
8AA/J	.	.	.	.	.	.	.	.	.	.	.	.	.	.	.
4r	.	8A/L	.	8A/L	.	.	.	.	.	.	.	.	.	.	.
.	.	16a/L	.	16.a/L	.	.	.	.	.	.	.	.	.	.	.
.	.	16g#X/JJ	.	.	.	.	.	.	.	.	.	.	.	.	.
.	.	.	.	32g#X/JJk	.	.	.	.	.	.	.	.	.	.	.
8r	.	8f#/L	.	8f#/L	.	.	.	.	.	.	.	.	.	.	.
16D\LL	.	16.d/L	.	16.d/L	.	.	.	.	.	.	.	.	.	.	.
16C#\JJ	.	.	.	.	.	.	.	.	.	.	.	.	.	.	.
.	.	32c#/JJk	.	32c#/JJk	.	.	.	.	.	.	.	.	.	.	.
=17	=17	=17	=17	=17	=17	=17	=17	=17	=17	=17	=17	=17	=17	=17	=17
!	!	!	!	!LO:TX:t=P:problem=mixed beam	!	!	!	!	!	!	!	!	!	!	!
8D\L	6	8B/L	.	8B/L	.	1r	.	1r	.	2r	.	1r	.	1ryy	1ryy
8D\	.	8f#/J	.	8dd\J	.	.	.	.	.	.	.	.	.	.	.
!	!	!LO:TX:t=P:problem=triola oznaczone numerem	!	!	!	!	!	!	!	!	!	!	!	!	!
*	*	*tuplet	*	*	*	*	*	*	*	*	*	*	*	*	*
8E\	.	24e/LL	.	24cc#\LL	.	.	.	.	.	.	.	.	.	.	.
.	.	24d/	.	24b\	.	.	.	.	.	.	.	.	.	.	.
.	.	24c#/JJ	.	24a\JJ	.	.	.	.	.	.	.	.	.	.	.
!	!	!	!	!LO:LB:g=original	!	!	!	!	!	!	!	!	!	!	!
!	!	!LO:TX:t=P:problem=triola oznaczone numerem	!	!	!	!	!	!	!	!	!	!	!	!	!
8E\J	4:3	24d/LL	.	24b\LL	.	.	.	.	.	.	.	.	.	.	.
.	.	24c#/	.	24a\	.	.	.	.	.	.	.	.	.	.	.
.	.	24B/JJ	.	24g#X\JJ	.	.	.	.	.	.	.	.	.	.	.
8A\L	.	8c#/L	.	8a/L	.	.	.	.	.	4r	.	.	.	.	.
8E\J	.	8e/J	.	8e/J	.	.	.	.	.	.	.	.	.	.	.
4AA/	.	4A/	.	4A/	.	.	.	.	.	8r	.	.	.	.	.
.	.	.	.	.	.	.	.	.	.	8a\	Ma-	.	.	.	.
=18	=18	=18	=18	=18	=18	=18	=18	=18	=18	=18	=18	=18	=18	=18	=18
!	!	!	!LO:DY:a	!	!LO:DY:a:t=p&colon;	!	!	!	!	!	!	!	!	!	!
8AA/L	.	8e/L	p	8cc#\L	p	1r	.	1r	.	8a\	-gni-	1r	.	1ryy	1ryy
8AA/	.	8e/	.	8cc#\	.	.	.	.	.	8e\	-fi-	.	.	.	.
8AA/	.	8e/	.	8cc#\	.	.	.	.	.	8e\	-ca-	.	.	.	.
8AA/J	7	8e/J	.	8cc#\J	.	.	.	.	.	8g\	-vit	.	.	.	.
8AA/L	.	8g/L	.	8ee\L	.	.	.	.	.	8.g\	Do-	.	.	.	.
8AA/	.	8f#/	.	8dd\	.	.	.	.	.	.	.	.	.	.	.
.	.	.	.	.	.	.	.	.	.	16f#\	-mi-	.	.	.	.
8AA/	6_ 4_	8f#/	.	8dd\	.	.	.	.	.	4f#\	-nus	.	.	.	.
8AA/J	.	8f#/J	.	8dd\J	.	.	.	.	.	.	.	.	.	.	.
!	!	!LO:LB:g=original	!	!	!	!	!	!	!	!	!	!	!	!	!
=19	=19	=19	=19	=19	=19	=19	=19	=19	=19	=19	=19	=19	=19	=19	=19
!	!	!	!	!	!	!	!	!	!	!LO:N:vis=8	!	!	!	!	!
8AA/L	.	8f#/L	.	8dd\L	.	1r	.	1r	.	8.dd\	fa-	1r	.	1ryy	1ryy
8AA/	.	8f#/	.	8dd\	.	.	.	.	.	.	.	.	.	.	.
.	.	.	.	.	.	.	.	.	.	16f#\	-ce-	.	.	.	.
8AA/	#	8f#/	.	8dd\	.	.	.	.	.	8f#\	-re	.	.	.	.
8AA/J	7	8g#X/J	.	8dd\J	.	.	.	.	.	8g#X\	no-	.	.	.	.
8AA/L	8 4:3	16a/LL	.	8dd\L	.	.	.	.	.	16a\LL	-bi-	.	.	.	.
.	.	16g#X/J	.	.	.	.	.	.	.	16g#X\JJ	.	.	.	.	.
8AA/	.	8a/J	.	8cc#\	.	.	.	.	.	8a\	-scum	.	.	.	.
8AA/	.	8e/L	.	8cc#\	.	.	.	.	.	8r	.	.	.	.	.
8AA/J	6 4	8a/J	.	8ff#\J	.	.	.	.	.	16a\	fa-	.	.	.	.
.	.	.	.	.	.	.	.	.	.	16a\	-cti	.	.	.	.
!LO:LB:g=original	!	!	!	!	!	!	!	!	!	!	!	!	!	!	!
=20	=20	=20	=20	=20	=20	=20	=20	=20	=20	=20	=20	=20	=20	=20	=20
8AA/L	7	8a/L	.	8ff#\L	.	1r	.	1r	.	16a\LL	su-	1r	.	1ryy	1ryy
.	.	.	.	.	.	.	.	.	.	16g\JJ	.	.	.	.	.
8AA/	.	8gn/	.	8ee\	.	.	.	.	.	8g\	-mus	.	.	.	.
!	!	!	!	!	!	!	!	!	!	!LO:LB:g=original	!	!	!	!	!
8AA/	.	8g/	.	8ee\	.	.	.	.	.	8r	.	.	.	.	.
8AA/J	.	8g/J	.	8ee\J	.	.	.	.	.	8g\	lae-	.	.	.	.
8AA/L	.	8g/L	.	8ee\L	.	.	.	.	.	16g\LL	-tan-	.	.	.	.
.	.	.	.	.	.	.	.	.	.	16f#\JJ	.	.	.	.	.
8AA/	6_ 4_	8f#/	.	8dd\	.	.	.	.	.	8f#\	-tes	.	.	.	.
8AA/	.	8f#/	.	8dd\	.	.	.	.	.	8r	.	.	.	.	.
8AA/J	x	8f#/J	.	8dd\J	.	.	.	.	.	8d\	lae-	.	.	.	.
=21	=21	=21	=21	=21	=21	=21	=21	=21	=21	=21	=21	=21	=21	=21	=21
4AA/	.	4a/	.	4ee\	.	1r	.	1r	.	16c#\LL	-tan-	1r	.	1ryy	1ryy
.	.	.	.	.	.	.	.	.	.	16d\	.	.	.	.	.
.	.	.	.	.	.	.	.	.	.	16e\	.	.	.	.	.
.	.	.	.	.	.	.	.	.	.	16f#\JJ	.	.	.	.	.
8r	.	8r	.	8r	.	.	.	.	.	8g\L	.	.	.	.	.
8G\	4 2	8a/	.	16cc#\LL	.	.	.	.	.	16e\L	.	.	.	.	.
.	.	.	.	16ee\JJ	.	.	.	.	.	16c#\JJ	.	.	.	.	.
4F#\	6	4a/	.	4cc#\	.	.	.	.	.	16d\LL	.	.	.	.	.
.	.	.	.	.	.	.	.	.	.	16e\	.	.	.	.	.
.	.	.	.	.	.	.	.	.	.	16f#\	.	.	.	.	.
.	.	.	.	.	.	.	.	.	.	16g\JJ	.	.	.	.	.
8r	.	8r	.	8r	.	.	.	.	.	8a\L	.	.	.	.	.
8D\	.	8a/	.	16dd\LL	.	.	.	.	.	16f#\L	.	.	.	.	.
.	.	.	.	16ff#\JJ	.	.	.	.	.	16d\JJ	.	.	.	.	.
=22	=22	=22	=22	=22	=22	=22	=22	=22	=22	=22	=22	=22	=22	=22	=22
8GG/L	.	8g/L	.	4b\	.	1r	.	1r	.	16e\LL	.	1r	.	1ryy	1ryy
.	.	.	.	.	.	.	.	.	.	16f#\	.	.	.	.	.
8GG/	6	8g/	.	.	.	.	.	.	.	16g\	.	.	.	.	.
.	.	.	.	.	.	.	.	.	.	16a\JJ	.	.	.	.	.
8GG/	.	8g/	.	16b\LL	.	.	.	.	.	16b\LL	.	.	.	.	.
.	.	.	.	16ee\	.	.	.	.	.	16g\	.	.	.	.	.
8AA/J	.	8g/J	.	16cc#\	.	.	.	.	.	16e\	.	.	.	.	.
.	.	.	.	16ee\JJ	.	.	.	.	.	16c#\JJ	.	.	.	.	.
!	!	!	!	!LO:LB:g=original	!	!	!	!	!	!	!	!	!	!	!
8D\L	.	8f#/L	.	8dd\L	.	.	.	.	.	4d\	-tes	.	.	.	.
8A|\	.	8a/	.	8a\	.	.	.	.	.	.	.	.	.	.	.
8Fn|\	.	8fn/	.	8fn\	.	.	.	.	.	4r	.	.	.	.	.
!	!	!	!	!LO:SIC:v:s=8en	!	!	!	!	!	!	!	!	!	!	!
8E|\J	.	8e/J	.	8d\J	.	.	.	.	.	.	.	.	.	.	.
=23	=23	=23	=23	=23	=23	=23	=23	=23	=23	=23	=23	=23	=23	=23	=23
!	!	!	!	!LO:TX:t=P:problem=mixed beam	!	!	!	!	!	!	!	!	!	!	!
4D\	n	8d/L	.	8d/L	.	1r	.	1r	.	8r	.	1r	.	1ryy	1ryy
.	.	8a/	.	8dd\	.	.	.	.	.	8d\	Con-	.	.	.	.
8r	.	8dd/	.	8ffn\	.	.	.	.	.	8fn\	-ver-	.	.	.	.
8D\	n	8ffn/J	.	8aa\J	.	.	.	.	.	8a\	-te	.	.	.	.
!	!	!	!	!	!	!	!	!	!	!LO:LB:g=original	!	!	!	!	!
!LO:TX:t=P:problem=mixed beam	!	!	!	!	!	!	!	!	!	!LO:TX:t=P:problem=obiegnik dolny	!	!	!	!	!
8E\L	4	8ff\L	.	8aa\L	.	.	.	.	.	8g\	Do-	.	.	.	.
8AA\	.	8ee\	.	8gg\J	.	.	.	.	.	8g\	-mi-	.	.	.	.
8D\	n	8dd\	.	8ffn\L	.	.	.	.	.	4f\	-ne	.	.	.	.
8DD/J	.	8ffn\J	.	16ddd\L	.	.	.	.	.	.	.	.	.	.	.
.	.	.	.	16aa\JJ	.	.	.	.	.	.	.	.	.	.	.
!	!	!LO:LB:g=original	!	!	!	!	!	!	!	!	!	!	!	!	!
=24	=24	=24	=24	=24	=24	=24	=24	=24	=24	=24	=24	=24	=24	=24	=24
4D\	n	4ffn\	.	4aa\	.	1r	.	1r	.	8r	.	1r	.	1ryy	1ryy
.	.	.	.	.	.	.	.	.	.	8a\	cap-	.	.	.	.
8r	.	8r	.	4r	.	.	.	.	.	8fn\	-ti-	.	.	.	.
8Fn\	6	8a/	.	.	.	.	.	.	.	8d\	-vi-	.	.	.	.
2G\	5:6:6:5 -	4g/	.	2b-X/	.	.	.	.	.	8b-X\L	-ta-	.	.	.	.
.	.	.	.	.	.	.	.	.	.	8g\J	.	.	.	.	.
.	.	8e-X/L	.	.	.	.	.	.	.	8e-X\L	-tem	.	.	.	.
.	.	8d/J	.	.	.	.	.	.	.	8d\J	.	.	.	.	.
=25	=25	=25	=25	=25	=25	=25	=25	=25	=25	=25	=25	=25	=25	=25	=25
!LO:TX:t=P:problem=mixed beam	!	!	!	!	!	!	!	!	!	!	!	!	!	!	!
8A\L	-9:8_ 4:#_	8d/L	.	8b-X/L	.	1r	.	1r	.	8d\	no-	1r	.	1ryy	1ryy
8AA/	.	8c#X/	.	8a/	.	.	.	.	.	8c#\	-stram	.	.	.	.
8AA/	.	8en/	.	8cc#X/	.	.	.	.	.	8r	.	.	.	.	.
8AA/J	x	8e/J	.	8cc#/J	.	.	.	.	.	16en\	Si-	.	.	.	.
.	.	.	.	.	.	.	.	.	.	16g\	-cut	.	.	.	.
!LO:LB:g=original	!	!	!	!	!	!	!	!	!	!	!	!	!	!	!
8D\L	9 4	8g/L	.	8ee\L	.	.	.	.	.	8g\	tor-	.	.	.	.
8D\	8_ #_	8f#X/	.	8dd\	.	.	.	.	.	4f#X\	-rens	.	.	.	.
8D\	.	8f#/	.	8dd\	.	.	.	.	.	.	.	.	.	.	.
8D\J	6_ 4_	8bn/J	.	8gg\J	.	.	.	.	.	16g\LL	in	.	.	.	.
.	.	.	.	.	.	.	.	.	.	16bn\JJ	.	.	.	.	.
=26	=26	=26	=26	=26	=26	=26	=26	=26	=26	=26	=26	=26	=26	=26	=26
8D\L	.	8b/L	.	8gg\L	.	1r	.	1r	.	8b\	au-	1r	.	1ryy	1ryy
8D\	5	8a/	.	8ff#\	.	.	.	.	.	4a\	-stro	.	.	.	.
8D\	.	8a/	.	8ff#\	.	.	.	.	.	.	.	.	.	.	.
8D\J	.	8a/J	.	8ff#\J	.	.	.	.	.	8d\	in	.	.	.	.
!LO:N:vis=8	!	!	!	!	!	!	!	!	!	!LO:LB:g=original	!	!	!	!	!
4AA/	.	4a/	.	4ee\	.	.	.	.	.	16c#\LL	au-	.	.	.	.
.	.	.	.	.	.	.	.	.	.	16e\	.	.	.	.	.
.	.	.	.	.	.	.	.	.	.	16g\	.	.	.	.	.
.	.	.	.	.	.	.	.	.	.	16e\JJ	.	.	.	.	.
8r	.	8r	.	8r	.	.	.	.	.	16f#\LL	.	.	.	.	.
.	.	.	.	.	.	.	.	.	.	16d\	.	.	.	.	.
8AA/	.	16cc#\LL	.	8gg\	.	.	.	.	.	16e\	.	.	.	.	.
.	.	16ee\JJ	.	.	.	.	.	.	.	16c#\JJ	.	.	.	.	.
=27	=27	=27	=27	=27	=27	=27	=27	=27	=27	=27	=27	=27	=27	=27	=27
4AA/	6_ 4_	4dd\	.	4ff#\	.	1r	.	1r	.	16d\LL	.	1r	.	1ryy	1ryy
.	.	.	.	.	.	.	.	.	.	16f#\	.	.	.	.	.
.	.	.	.	.	.	.	.	.	.	16a\	.	.	.	.	.
.	.	.	.	.	.	.	.	.	.	16f#\JJ	.	.	.	.	.
8r	.	8r	.	8r	.	.	.	.	.	16g\LL	.	.	.	.	.
.	.	.	.	.	.	.	.	.	.	16e\	.	.	.	.	.
8AA/	x	16a\LL	.	8ff#\	.	.	.	.	.	16f#\	.	.	.	.	.
.	.	16dd\JJ	.	.	.	.	.	.	.	16d\JJ	.	.	.	.	.
!	!	!LO:TX:t=P:problem=mixed beam	!	!	!	!	!	!	!	!	!	!	!	!	!
8GG/L	.	8b\L	.	8gg\L	.	.	.	.	.	4b\	.	.	.	.	.
8GG/	.	8b\	.	8dd\	.	.	.	.	.	.	.	.	.	.	.
*	*	*	*	*	*	*	*	*	*	*Xtuplet	*	*	*	*	*
8GG/	.	8d/	.	8bb\	.	.	.	.	.	24b\LL	.	.	.	.	.
.	.	.	.	.	.	.	.	.	.	24a\	.	.	.	.	.
.	.	.	.	.	.	.	.	.	.	24g\JJ	.	.	.	.	.
8GG/J	.	8d/J	.	8bb\J	.	.	.	.	.	24f#\LL	.	.	.	.	.
.	.	.	.	.	.	.	.	.	.	24e\	.	.	.	.	.
.	.	.	.	.	.	.	.	.	.	24d\JJ	.	.	.	.	.
!	!	!	!	!LO:LB:g=original	!	!	!	!	!	!	!	!	!	!	!
=28	=28	=28	=28	=28	=28	=28	=28	=28	=28	=28	=28	=28	=28	=28	=28
8AA/L	.	8c#/L	.	8aa\L	.	1r	.	1r	.	16c#\LL	.	1r	.	1ryy	1ryy
.	.	.	.	.	.	.	.	.	.	16e\JJ	.	.	.	.	.
16E/L	6	8g/	.	16cc#\L	.	.	.	.	.	4.g\	.	.	.	.	.
16D/JJ	.	.	.	16dd\JJ	.	.	.	.	.	.	.	.	.	.	.
8C#/L	.	8g/	.	16ee\LL	.	.	.	.	.	.	.	.	.	.	.
.	.	.	.	16a\	.	.	.	.	.	.	.	.	.	.	.
8AA/J	.	8g/J	.	16cc#\	.	.	.	.	.	.	.	.	.	.	.
.	.	.	.	16ee\JJ	.	.	.	.	.	.	.	.	.	.	.
8D/L	.	8a/L	.	8dd\	.	.	.	.	.	16f#\LL	.	.	.	.	.
.	.	.	.	.	.	.	.	.	.	16e\	.	.	.	.	.
8GG/	.	8g/	.	4dd\	.	.	.	.	.	16g\	.	.	.	.	.
.	.	.	.	.	.	.	.	.	.	16e\JJ	.	.	.	.	.
8AA/	4:3	8f#/	.	.	.	.	.	.	.	8d\L	.	.	.	.	.
8AA/J	.	8e/J	.	8cc#\	.	.	.	.	.	8e\J	.	.	.	.	.
!	!	!LO:LB:g=original	!	!	!	!	!	!	!	!	!	!	!	!	!
=29	=29	=29	=29	=29	=29	=29	=29	=29	=29	=29	=29	=29	=29	=29	=29
4D\	.	4f#/	.	4dd\	.	1r	.	1r	.	8d\	-stro	1r	.	1ryy	1ryy
.	.	.	.	.	.	.	.	.	.	8d\	in	.	.	.	.
16r	.	16r	.	16r	.	.	.	.	.	[4dd\	au-	.	.	.	.
!	!	!	!LO:DY:a:t=f&colon;	!	!LO:DY:a:t=f&colon;	!	!	!	!	!	!	!	!	!	!
16D/LL	.	16d/LL	f	16d/LL	f	.	.	.	.	.	.	.	.	.	.
16BB-X/	.	16B-X/	.	16B-X/	.	.	.	.	.	.	.	.	.	.	.
16D/JJ	.	16d/JJ	.	16d/JJ	.	.	.	.	.	.	.	.	.	.	.
!	!	!	!	!	!	!	!	!	!	!LO:TX:t=P:problem=mixed beam	!	!	!	!	!
8GG#X/	.	8G#X/L	.	8G#X/L	.	.	.	.	.	8dd\L]	.	.	.	.	.
4.AA;/	.	8A/J	.	8A/J	.	.	.	.	.	8d/J	.	.	.	.	.
!	!	!	!	!	!	!	!	!	!	!LO:TX:a:B:t=t	!	!	!	!	!
.	.	4r;	.	4r;	.	.	.	.	.	4e\	.	.	.	.	.
=30	=30	=30	=30	=30	=30	=30	=30	=30	=30	=30	=30	=30	=30	=30	=30
!LO:TX:a:t=T&colon;	!	!	!	!	!LO:DY:a:t=for&colon;	!	!	!	!	!	!	!	!	!	!
8D\L	.	8r	.	8r	f	8r	.	8r	.	8d\	-stro	8r	.	1ryy	1ryy
!	!	!	!	!	!	!	!	!	!	!LO:PB:g=original	!	!	!	!	!
!	!	!	!	!	!	!	!	!	!	!LO:TX:a:t=T&colon;	!	!	!	!	!
8F#\	5	8f#/L	.	8f#/L	.	8F#\	Qui	8A\	Qui	8c#\	qui	8f#/	Qui	.	.
!	!	!	!LO:DY:b:t=f&colon;	!	!	!	!	!	!	!	!	!LO:TX:t=P:problem=all\right&colon; global	!	!	!
8F#\	.	8a/	f	8a/	.	8F#\	se-	8c#\	Se-	8f#\	se-	8a\	Se-	.	.
8F#\J	.	8cc#/J	.	8cc#/J	.	8F#\	-mi-	8c#\	-mi-	8f#\	-mi-	8cc#\	-mi-	.	.
!LO:LB:g=original	!	!	!	!	!	!	!	!	!	!	!	!	!	!	!
4F#\	.	8ff#\L	.	8ff#\L	.	8F#\	-nant	8c#\	-nant	8a\	-nant	8ff#\	-nant	.	.
.	.	8cc#\	.	8cc#\	.	8F#\	in	8f#\	in	8a\	in	8cc#\	in	.	.
8r	.	8dd\	.	8dd\	.	8F#\	la-	8d\	La-	8a\	la-	8dd\	La-	.	.
8F#\	#4	8b#X\J	.	8b#X\J	.	8F#\	-chri-	8d\	-chry-	8g\	-chrij-	8b#X\	-crÿ-	.	.
=31	=31	=31	=31	=31	=31	=31	=31	=31	=31	=31	=31	=31	=31	=31	=31
8E#X\L	6	8cc#\L	.	8cc#\L	.	8E#X\	-mis	8c#\	-mis	8g\	-mus	8cc#\	-mis	1ryy	1ryy
8C#\	#	8g#X\	.	8ee#X\	.	8C#\	in	8c#\	in	8e#X\	in	8g#X\	in	.	.
8C#\	6 4	8a\	.	8ff#\	.	8C#\	ex-	8c#\	E-	8f#\	e-	8a\	e-	.	.
8C#\J	5 #	8b\J	.	8gg#X\J	.	8C#\	-ul-	8c#\	-xul-	8g#X\	-xul-	8b\	-xul-	.	.
!	!	!	!	!	!	!	!	!	!	!LO:TX:t=P:problem=obiegnik dolny	!	!	!	!	!
.	.	8qqb/	.	8qqgg#/	.	.	.	.	.	.	.	8qqb/	.	.	.
4C#\	4#r	8a/L	.	8ff#\L	.	8C#\	-ta-	8c#\	-ta-	8f#\	-ta-	8a\	-ta-	.	.
.	.	16g#X/L	.	16ee#X\L	.	8C#\	-ti-	8c#\	-ti-	16e#\LL	-ti-	(16g#\LL	-ti-	.	.
.	.	16b/JJ	.	16gg#X\JJ	.	.	.	.	.	16g#\JJ	.	16b\JJ)	.	.	.
!	!	!	!	!	!	!	!	!	!	!LO:TX:t=P:problem=obiegnik dolny	!	!	!	!	!
.	.	8qqb/	.	8qqgg#/	.	.	.	.	.	.	.	8qqb/	.	.	.
!	!	!	!	!	!	!	!	!LO:LB:g=original	!	!	!	!	!	!	!
4C#\	4#r	8a/L	.	8ff#\L	.	8C#\	-o-	8c#\	-o-	8f#\	-o-	8a\L	-on	.	.
.	.	16g#X/L	.	16ee#X\L	.	8C#\	-ne	8c#\	-ne	16e#\LL	-ne	8g#\J	.	.	.
!	!	!LO:SIC:v:s=16bn	!	!	!	!	!	!	!	!	!	!	!	!	!
.	.	16a/JJ	.	16gg#\JJ	.	.	.	.	.	16g#\JJ	.	.	.	.	.
!	!	!	!	!LO:LB:g=original	!	!LO:LB:g=original	!	!	!	!	!	!LO:LB:g=original	!	!	!
=32	=32	=32	=32	=32	=32	=32	=32	=32	=32	=32	=32	=32	=32	=32	=32
.	.	8qqb/	.	8qqgg/	.	.	.	.	.	.	.	.	.	.	.
4C#\	4#r	8a/L	.	8ff#\L	.	8C#\	me-	8c#\	me-	8f#\	me-	8a\	Me-	1ryy	1ryy
.	.	8g#X/J	.	8ee#X\J	.	8C#\	-tent	8c#\	-tent	8e#X\	-tent	8g#X\	-tent	.	.
4r	.	16ff#\LL	.	16ff#\LL	.	8r	.	8r	.	8r	.	8r	.	.	.
.	.	16cc#\	.	16cc#\	.	.	.	.	.	.	.	.	.	.	.
!	!	!	!	!	!	!	!	!	!	!LO:LB:g=original	!	!	!	!	!
.	.	16a\	.	16a\	.	(16c#\LL	e-	8c#\	e-	8a\	e-	8cc#\	E-	.	.
.	.	16f#\JJ	.	16f#\JJ	.	16F#\JJ)	.	.	.	.	.	.	.	.	.
8E#X\L	7	8b\L	.	8dd\L	.	8E#X\	-un-	8B\	-un-	8b\	-un-	8dd\	-un-	.	.
8F#\	5	8a\	.	8cc#\	.	8F#\	-tes	8f#\	-tes	8a\	-tes	8cc#\	-tes	.	.
8E#\	7	8b\	.	8dd\	.	8E#\	i-	8B\	i-	8b\	i-	8dd\	i-	.	.
8F#\J	5	8a\J	.	8cc#\J	.	8F#\	-bant	8c#\	-bant	8a\	-bant	8cc#\	-bant	.	.
=33	=33	=33	=33	=33	=33	=33	=33	=33	=33	=33	=33	=33	=33	=33	=33
1r	.	1r	.	1r	.	4r	.	4r	.	4r	.	4r	.	1ryy	1ryy
.	.	.	.	.	.	4C#/	et	4G#X/	(et)	4e\	et	4cc#\	Et	.	.
.	.	.	.	.	.	2D/	Fle-	8G#/	fle-	2f#\	fle-	2b#X\	fle-	.	.
.	.	.	.	.	.	.	.	4A/	.	.	.	.	.	.	.
.	.	.	.	.	.	.	.	8G#/	.	.	.	.	.	.	.
!	!	!LO:LB:g=original	!	!	!	!	!	!	!	!	!	!	!	!	!
=34	=34	=34	=34	=34	=34	=34	=34	=34	=34	=34	=34	=34	=34	=34	=34
4r	.	4r	.	4r	.	8C#/	-bant	8G#X/	-bant	4e\	-bant	4cc#\	-bant	1ryy	1ryy
.	.	.	.	.	.	8C#/	mit-	8Gn/	mit-	.	.	.	.	.	.
8c#\L	.	8g/L	.	8ee\L	.	8c#\	-ten-	8G/	-ten-	8e\	mit-	8r	.	.	.
8B\J	.	8g/J	.	8ee\J	.	8B\	-tes	8G/	-tes	8f#\	-ten-	8ee\	mit-	.	.
!	!	!	!	!	!	!	!	!LO:LB:g=original	!	!	!	!	!	!	!
!	!	!LO:TX:t=P:problem=mixed beam	!	!	!	!	!	!	!	!	!	!	!	!	!
2A#X\	5:6:5	8g/L	.	8ee\L	.	8A#X\	se-	8e\	Se-	8g\	-tes	8ee\	-ten-	.	.
.	.	8ee\J	.	16ff#\L	.	16A#\	-mi-	16c#\	-mi-	16g\	se-	8ee\	-tes	.	.
.	.	.	.	16gg\JJ	.	16A#\	-na	16c#\	-na	16e\	-mi-	.	.	.	.
.	.	4cc#\	.	8ff#\L	.	4A#\	su-	4f#\	Su-	4c#\	-na	(16ff#\LL	Se-	.	.
.	.	.	.	.	.	.	.	.	.	.	.	16ggn\)	.	.	.
.	.	.	.	8ee\J	.	.	.	.	.	.	.	16ff#\	-mi-	.	.
.	.	.	.	.	.	.	.	.	.	.	.	16ee\JJ	-na	.	.
=35	=35	=35	=35	=35	=35	=35	=35	=35	=35	=35	=35	=35	=35	=35	=35
!LO:TX:t=P:problem=mixed beam	!	!	!	!	!	!	!	!	!	!	!	!	!	!	!
8B\L	.	16b/LL	.	16dd\LL	.	8B\	-a	8B\	-a	8f#\	sua	16dd\	Su-	1ryy	1ryy
.	.	16f#/	.	16b\	.	.	.	.	.	.	.	16dd\	-a	.	.
!	!	!	!	!	!	!	!	!	!	!	!	!LO:LB:g=original	!	!	!
8BB/	.	16d/	.	16f#\	.	16B\	ve-	16B\	ve-	16f#\	Ve-	16dd\	Ve-	.	.
.	.	16f#/JJ	.	16d\JJ	.	16B\	-ni-	16B\	-ni-	16f#\	-ni-	16dd\	-ni-	.	.
!	!	!	!	!	!	!LO:LB:g=original	!	!	!	!	!	!	!	!	!
!	!	!	!	!LO:TX:t=P:problem=mixed beam	!	!	!	!	!	!	!	!	!	!	!
8B\	.	8B/L	.	8B/L	.	8B\	-en-	8B\	-en-	8f#\	-en-	8dd\	-en-	.	.
8A\J	.	8f#/J	.	8dd\J	.	8A\	-tes	8B\	-tes	8f#\	-tes	8dd\	-tes	.	.
!	!	!	!	!	!	!	!	!	!	!LO:LB:g=original	!	!	!	!	!
2G#X\	5:6:5	4.b\	.	16dd\LL	.	8G#X\	au-	8B\	au-	8e\	au-	8dd\	au-	.	.
.	.	.	.	16ee\J	.	.	.	.	.	.	.	.	.	.	.
.	.	.	.	8ff#\J	.	8G#\	-tem	8B\	-tem	8e\	-tem	16ee\LL	-tem	.	.
.	.	.	.	.	.	.	.	.	.	.	.	16ff#\JJ	.	.	.
.	.	.	.	8ee\L	.	8.G#\	ve-	8.B\	ve-	8.e\	Ve-	8ee\	Ve-	.	.
.	.	8b\	.	8dd\J	.	.	.	.	.	.	.	8dd\	-ni-	.	.
.	.	.	.	.	.	16G#\	-ni-	16B\	-nie-	16e\	-ni-	.	.	.	.
=36	=36	=36	=36	=36	=36	=36	=36	=36	=36	=36	=36	=36	=36	=36	=36
4A\	.	8a\L	.	8cc#\L	.	8A\	-ent	8c#\	-ent	8e\	-ent	8cc#\	-ent	1ryy	1ryy
.	.	8a\J	.	8a\J	.	8A\	c(um)	8c#\	cum	8e\	cum	8a\	cum	.	.
8r	.	4gg\	.	4ggn\	.	8A\	e-	8c#\	E-	8e\	e-	8gg\	ex-	.	.
!	!	!	!	!	!	!LO:SIC:v:t=-xul-	!	!	!	!	!	!	!	!	!
16E\LL	.	.	.	.	.	8A\	-xu-	8c#\	-xul-	8e\	-xul-	8gg\	-ul-	.	.
16D\JJ	.	.	.	.	.	.	.	.	.	.	.	.	.	.	.
8C#\L	.	16gg\LL	.	16gg\LL	.	8C#/	-ta-	8e\	-ta-	(16e\LL	-ta-	16gg\LL	-ta-	.	.
.	.	16ee\	.	16ee\	.	.	.	.	.	16a\JJ)	.	16ee\JJ	.	.	.
8D\J	.	16ff#\	.	16ff#\	.	8D/	-ti-	16d\LL	-ti-	8a\	-ti-	16ff#\LL	-ti-	.	.
.	.	16dd\JJ	.	16dd\JJ	.	.	.	16f#\JJ	.	.	.	16dd\JJ	.	.	.
!	!	!	!	!LO:TX:a:B:t=t&colon;	!	!	!	!	!	!	!	!	!	!	!
.	.	.	.	.	.	.	.	.	.	.	.	8qqdd/	.	.	.
4A\	6 4:3	8dd\L	.	4ee\	.	4A\	-o-	4e\	-o-	4a\	-o-	4cc#\	-o-	.	.
.	.	8cc#\J	.	.	.	.	.	.	.	.	.	.	.	.	.
!LO:LB:g=original	!	!	!	!LO:PB:g=original	!	!	!	!LO:LB:g=original	!	!	!	!	!	!	!
=37	=37	=37	=37	=37	=37	=37	=37	=37	=37	=37	=37	=37	=37	=37	=37
8B\L	.	4dd\	.	4dd\	.	8B\	-ne	8d\	-ne	8f#\	-ne	8dd\	-ne	1ryy	1ryy
8F#\	.	.	.	.	.	8F#\	por-	8d\	por-	8a\	por-	8a\	por-	.	.
8F#\	.	4a\	.	4a/	.	8F#\	-tan-	8d\	-tan-	8a\	-tan-	4a\	-tan-	.	.
8F#\J	.	.	.	.	.	8F#\	-tes	8d\	-tes	8a\	-tes	.	.	.	.
4G\	.	4b\	.	4b\	.	4G\	ma-	4d\	Ma-	4g\	ma-	8a\	-tes	.	.
!	!	!	!	!	!	!	!	!	!	!	!	!LO:LB:g=original	!	!	!
.	.	.	.	.	.	.	.	.	.	.	.	8b\	Ma-	.	.
8r	.	8b\L	.	8gg\L	.	16G\	-ni-	16e\	-ni-	16g\	-ni-	8gg\	-ni-	.	.
.	.	.	.	.	.	16G\	-pu-	16e\	-pu-	16g\	-pu-	.	.	.	.
8G\	.	16a\L	.	16ff#\L	.	8G\	-los	8e\	-los	8g\	-los	16ff#\	-pu-	.	.
.	.	16g\JJ	.	16ee\JJ	.	.	.	.	.	.	.	16ee\	-los	.	.
!	!	!	!	!	!	!	!	!	!	!LO:LB:g=original	!	!	!	!	!
=38	=38	=38	=38	=38	=38	=38	=38	=38	=38	=38	=38	=38	=38	=38	=38
!LO:TX:t=P:problem=mixed beam	!	!LO:TX:t=P:problem=mixed beam	!	!	!	!	!	!	!	!	!	!	!	!	!
8A\L	.	8f#/L	.	4a\	.	2A\	su-	2A/	Su-	(4f#\	Su-	(4dd\	Su-	1ryy	1ryy
8A\	.	8dd\J	.	.	.	.	.	.	.	.	.	.	.	.	.
!	!	!	!	!LO:TX:a:B:t=t&colon;	!	!	!	!	!	!	!	!	!	!	!
.	.	8qqdd/	.	.	.	.	.	.	.	.	.	.	.	.	.
8AA/	.	4cc#t\	.	4ee\	.	.	.	.	.	4e\)	.	4cc#\)	.	.	.
8AA/J	.	.	.	.	.	.	.	.	.	.	.	.	.	.	.
!	!	!	!	!LO:TX:t=P:problem=mixed beam	!	!	!	!	!	!	!	!	!	!	!
4D\	.	4f#/	.	16dd\LL	.	4D/	-os	4A/	-os	4f#\	-os	4dd\	-os.	.	.
.	.	.	.	16d/	.	.	.	.	.	.	.	.	.	.	.
.	.	.	.	16dd\	.	.	.	.	.	.	.	.	.	.	.
.	.	.	.	16dd\JJ	.	.	.	.	.	.	.	.	.	.	.
4r	.	16r	.	16cc#\LL	.	4r	.	4r	.	4r	.	4r	.	.	.
.	.	16c#/LL	.	16a#X\	.	.	.	.	.	.	.	.	.	.	.
.	.	16d/	.	16f#\	.	.	.	.	.	.	.	.	.	.	.
.	.	16c#/JJ	.	16e\JJ	.	.	.	.	.	.	.	.	.	.	.
!	!	!LO:LB:g=original	!	!	!	!LO:LB:g=original	!	!	!	!	!	!	!	!	!
=39	=39	=39	=39	=39	=39	=39	=39	=39	=39	=39	=39	=39	=39	=39	=39
!LO:TX:a:t=S&colon;	!	!	!	!LO:TX:t=P:problem=mixed beam	!LO:DY:a:t=p&colon;	!	!	!	!	!	!	!LO:TX:a:t=4.	!	!	!
8BB/L	.	8B/L	.	8d/L	p	1r	.	1r	.	4f#\	Glo-	1r	.	1ryy	1ryy
!	!	!	!LO:DY:b	!	!	!	!	!	!	!	!	!	!	!	!
8BB/	.	8f#/	p	8dd\	.	.	.	.	.	.	.	.	.	.	.
8BB/	.	8f#/	.	8dd\	.	.	.	.	.	16f#\LL	-ri-	.	.	.	.
.	.	.	.	.	.	.	.	.	.	16d\JJ	.	.	.	.	.
8BB/J	.	8f#/J	.	8dd\J	.	.	.	.	.	16c#/LL	-a	.	.	.	.
.	.	.	.	.	.	.	.	.	.	16B/JJ	.	.	.	.	.
8BB/L	6:5 4:3	8g/L	.	8ee\L	.	.	.	.	.	8g\	Pa-	.	.	.	.
8BB/	.	8f#/	.	8dd\	.	.	.	.	.	8f#\	-tri	.	.	.	.
8BB/	.	8f#/	.	8dd\	.	.	.	.	.	8r	.	.	.	.	.
8BB/J	.	8f#/J	.	8dd\J	.	.	.	.	.	8B/	et	.	.	.	.
=40	=40	=40	=40	=40	=40	=40	=40	=40	=40	=40	=40	=40	=40	=40	=40
8BB/L	6:5 4:3	8g/L	.	8ee\L	.	1r	.	1r	.	16g\	Fi-	1r	.	1ryy	1ryy
.	.	.	.	.	.	.	.	.	.	16g\	-li-	.	.	.	.
8BB/	.	8f#/	.	8dd\	.	.	.	.	.	8f#\	-o	.	.	.	.
8BB/	.	8b/	.	8dd\	.	.	.	.	.	8b\	et	.	.	.	.
8BB/J	.	8f#/J	.	8dd\J	.	.	.	.	.	8f#\	Spi-	.	.	.	.
8BB/L	6:5	8b/L	.	8dd\	.	.	.	.	.	8g\	-ri-	.	.	.	.
8BB/	.	8f#/	.	4dd\	.	.	.	.	.	16f#\	-tu-	.	.	.	.
.	.	.	.	.	.	.	.	.	.	16f#\	-i	.	.	.	.
!LO:TX:b:t=c	!	!	!	!	!	!	!	!	!	!	!	!	!	!	!
.	.	.	.	.	.	.	.	.	.	8qqf#/	.	.	.	.	.
8C#/	#	8e#X/	.	.	.	.	.	.	.	4e#X\	Sanc-	.	.	.	.
8BB/J	.	8g#X/J	.	8dd\	.	.	.	.	.	.	.	.	.	.	.
!	!	!	!	!	!	!	!	!	!	!LO:LB:g=original	!	!	!	!	!
=41	=41	=41	=41	=41	=41	=41	=41	=41	=41	=41	=41	=41	=41	=41	=41
!LO:TX:t=P:problem=mixed beam	!	!	!	!	!	!	!	!	!	!	!	!	!	!	!
.	.	.	.	8qqdd/	.	.	.	.	.	.	.	.	.	.	.
8AA#X/L	.	8a#X/L	.	4cc#\	.	1r	.	1r	.	4f#\	-to	1r	.	1ryy	1ryy
8F#\J	6#r	8a#/J	.	.	.	.	.	.	.	.	.	.	.	.	.
4r	.	4r	.	4r	.	.	.	.	.	8d\	Si-	.	.	.	.
.	.	.	.	.	.	.	.	.	.	8d\	-cut	.	.	.	.
2F#\	6nr:5	2dd\	.	2aan\	.	.	.	.	.	16a\LL	e-	.	.	.	.
.	.	.	.	.	.	.	.	.	.	16f#\JJ	.	.	.	.	.
.	.	.	.	.	.	.	.	.	.	8d\	-rat	.	.	.	.
.	.	.	.	.	.	.	.	.	.	8d\	in	.	.	.	.
.	.	.	.	.	.	.	.	.	.	8cn\	prin-	.	.	.	.
=42	=42	=42	=42	=42	=42	=42	=42	=42	=42	=42	=42	=42	=42	=42	=42
!	!	!	!	!	!	!	!	!	!	!LO:SIC:v:s=8.cn	!	!	!	!	!
8G\L	9 4	2dd\	.	4aa\	.	1r	.	1r	.	8.c#/	-ci-	1r	.	1ryy	1ryy
8G\	.	.	.	.	.	.	.	.	.	.	.	.	.	.	.
.	.	.	.	.	.	.	.	.	.	16B/	-pi-	.	.	.	.
8G\	8 3	.	.	4gg\	.	.	.	.	.	8B/	-o	.	.	.	.
8G\J	.	.	.	.	.	.	.	.	.	8B/	et	.	.	.	.
!LO:LB:g=original	!	!	!	!LO:LB:g=original	!	!	!	!	!	!	!	!	!	!	!
4.G\	6	2ee\	.	2bb\	.	.	.	.	.	8b\L	nunc	.	.	.	.
.	.	.	.	.	.	.	.	.	.	8g\J	.	.	.	.	.
.	.	.	.	.	.	.	.	.	.	8e\L	et	.	.	.	.
8G\	5	.	.	.	.	.	.	.	.	8d\J	.	.	.	.	.
=43	=43	=43	=43	=43	=43	=43	=43	=43	=43	=43	=43	=43	=43	=43	=43
!LO:TX:t=P:problem=mixed beam	!	!	!	!	!	!	!	!	!	!	!	!	!	!	!
8A\L	9:8 4:3	4ee\	.	8bb\L	.	4r	.	4r	.	8d\	sem-	4r	.	1ryy	1ryy
8AA/J	.	.	.	8aa\J	.	.	.	.	.	8c#\	-per	.	.	.	.
!LO:TX:t=S&colon;	!	!	!	!	!LO:DY:a:t=f&colon;	!	!	!	!	!	!	!	!	!	!
8E\L	.	8ee\L	.	16a\LL	f	8E\	et	8A/	(et)	8g\	et	8cc#\	Et	.	.
.	.	.	.	16gg\	.	.	.	.	.	.	.	.	.	.	.
!	!	!	!LO:DY:b:t=f&colon;	!	!	!	!	!	!	!	!	!	!	!	!
8C#\J	.	8ee\J	f	16a\	.	8C#\	in	8A/	in	8g\	in	8ee\	in	.	.
.	.	.	.	16gg\JJ	.	.	.	.	.	.	.	.	.	.	.
!	!	!	!	!	!	!	!	!	!	!LO:LB:g=original	!	!	!	!	!
8D\L	4:3 9:8	8ee\L	.	8gg\L	.	16D\	sae-	8A/	Sae-	16g\	Sae-	16ee\	Sae-	.	.
.	.	.	.	.	.	16D\	-cu-	.	.	16f#\	-cu-	16dd\	-cu-	.	.
8D\	.	8dd\	.	8ff#\J	.	8D\	-la	16A/	-cu-	8f#\	-la	8dd\	-la	.	.
.	.	.	.	.	.	.	.	16A/	-la	.	.	.	.	.	.
!	!	!	!	!	!	!	!	!LO:LB:g=original	!	!	!	!	!	!	!
!	!	!	!	!LO:TX:t=P:problem=mixed beam	!	!	!	!	!	!	!	!	!	!	!
8D\	6_ 4_	8gg\	.	16g/LL	.	8D\	sae-	8d\	Sae-	8b\	Sae-	8gg\	Sae-	.	.
.	.	.	.	16bb\	.	.	.	.	.	.	.	.	.	.	.
8D\J	.	8gg\J	.	16g/	.	8D\	-cu-	8d\	-cu-	8b\	-cu-	8gg\	-cu-	.	.
.	.	.	.	16bb\JJ	.	.	.	.	.	.	.	.	.	.	.
=44	=44	=44	=44	=44	=44	=44	=44	=44	=44	=44	=44	=44	=44	=44	=44
8D\L	.	8gg\L	.	8bb\L	.	8D\	-lo-	8d\	-lo-	8b\	-lo-	8gg\	-lo-	1ryy	1ryy
8D\	5	8ff#\J	.	8aa\J	.	8D\	-rum	8d\	-rum	8a\	-rum	8ff#\	-rum	.	.
!	!	!LO:TX:t=P:problem=mixed beam	!	!	!	!	!	!	!	!	!	!	!	!	!
8BB\	.	16d/LL	.	4g#X/	.	8B\	a-	4r	.	4g#X\	a-	4dd\	a-	.	.
.	.	16dd\	.	.	.	.	.	.	.	.	.	.	.	.	.
8BB\J	6\	16d/	.	.	.	8B\	-men	.	.	.	.	.	.	.	.
.	.	16dd\JJ	.	.	.	.	.	.	.	.	.	.	.	.	.
!	!	!LO:TX:t=P:problem=mixed beam	!	!	!	!	!	!	!	!	!	!	!	!	!
8BB/L	.	16d/LL	.	16g#/LL	.	4B\	a-	4r	.	16g#\LL	.	8dd\L	.	.	.
.	.	16dd\	.	16b/	.	.	.	.	.	16b\	.	.	.	.	.
8BB/	.	16d/	.	16a/	.	.	.	.	.	16a\	.	8ee\J	.	.	.
.	.	16dd\JJ	.	16g#/JJ	.	.	.	.	.	16g#\JJ	.	.	.	.	.
!	!	!LO:LB:g=original	!	!	!	!	!	!	!	!	!	!	!	!	!
!	!	!LO:TX:t=P:problem=mixed beam	!	!LO:TX:t=P:problem=mixed beam	!	!	!	!	!	!	!	!	!	!	!
8C#/	6	8e/L	.	8a/L	.	4C#/	.	4A/	a-	8a\L	.	4ee\	-men	.	.
8C#/J	.	8ee\J	.	8ggn\J	.	.	.	.	.	8gn\J	.	.	.	.	.
!	!	!	!	!	!	!	!	!	!	!	!	!LO:LB:g=original	!	!	!
=45	=45	=45	=45	=45	=45	=45	=45	=45	=45	=45	=45	=45	=45	=45	=45
!	!	!	!	!	!	!	!	!	!	!	!	!LO:TX:t=P:problem=brak taktu nr 45	!	!	!
8D\L	.	8ee\	.	8.ff#\L	.	8D\L	.	8A\	.	4f#\	.	1ryy	.	1ryy	1ryy
8B\	.	4dd\	.	.	.	8B\	.	4B\	.	.	.	.	.	.	.
.	.	.	.	32ee\LL	.	.	.	.	.	.	.	.	.	.	.
.	.	.	.	32dd\JJJ	.	.	.	.	.	.	.	.	.	.	.
!	!	!	!	!LO:TX:a:B:t=t&colon;	!	!	!	!	!	!	!	!	!	!	!
8G\	6 5	.	.	4ee\	.	8G\	.	.	.	4e\	-men	.	.	.	.
8A\J	.	8cc#\	.	.	.	8A\J	.	8A\	.	.	.	.	.	.	.
4D\	.	4d/	.	8dd\	.	4D\	-men	4A\	-men	8d\L	a-	.	.	.	.
!	!	!	!	!	!LO:DY:a:t=p&colon;	!	!	!	!	!	!	!	!	!	!
.	.	.	.	8r	p	.	.	.	.	24f#\L	.	.	.	.	.
.	.	.	.	.	.	.	.	.	.	24e\	.	.	.	.	.
.	.	.	.	.	.	.	.	.	.	24d\JJ	.	.	.	.	.
4r	.	8r	.	8ff#\L	.	4r	.	4r	.	8a\L	.	.	.	.	.
!	!	!	!LO:DY:a:t=p&colon;	!	!	!	!	!	!	!	!	!	!	!	!
.	.	8d/	p	16gg\L	.	.	.	.	.	16b\L	.	.	.	.	.
.	.	.	.	16ee\JJ	.	.	.	.	.	16g\JJ	.	.	.	.	.
=46	=46	=46	=46	=46	=46	=46	=46	=46	=46	=46	=46	=46	=46	=46	=46
2r	.	4c#/	.	16a\LL	.	2r	.	2r	.	16e\LL	.	2r	.	1ryy	1ryy
.	.	.	.	16ee\JJ	.	.	.	.	.	16g\JJ	.	.	.	.	.
.	.	.	.	8qqee/	.	.	.	.	.	8qqg/	.	.	.	.	.
.	.	.	.	4.dd\	.	.	.	.	.	4f#\	.	.	.	.	.
.	.	8d/L	.	.	.	.	.	.	.	.	.	.	.	.	.
!	!	!	!	!	!	!	!	!	!	!LO:LB:g=original	!	!	!	!	!
.	.	8B/J	.	.	.	.	.	.	.	8d\	-men	.	.	.	.
4r	.	8G/L	.	16dd\	.	4r	.	4r	.	24dd\LL	a-	4r	.	.	.
.	.	.	.	.	.	.	.	.	.	24cc#\	.	.	.	.	.
!	!	!	!	!LO:LB:g=original	!	!	!	!	!	!	!	!	!	!	!
!	!	!	!	!LO:N:vis=8	!	!	!	!	!	!	!	!	!	!	!
.	.	.	.	16b/KL	.	.	.	.	.	.	.	.	.	.	.
.	.	.	.	.	.	.	.	.	.	24b\JJ	.	.	.	.	.
.	.	8d/J	.	8f#/J	.	.	.	.	.	24a\LL	.	.	.	.	.
.	.	.	.	.	.	.	.	.	.	24g\	.	.	.	.	.
.	.	.	.	.	.	.	.	.	.	24f#\JJ	.	.	.	.	.
!LO:TX:t=P:problem=mixed beam	!	!	!LO:DY:a:t=f&colon;	!	!LO:DY:b:t=f&colon;	!LO:TX:t=P:problem=mixed beam	!	!	!	!	!	!	!	!	!
8A\L	6 4	16dd\LL	f	16ff#\LL	f	8A\L	a-	4A/	a-	8f#\L	.	(8dd\L	a-	.	.
.	.	16ff#\	.	16ddd\	.	.	.	.	.	.	.	.	.	.	.
8AA/J	5 3	16cc#\	.	16ee\	.	8AA/J	.	.	.	8e\J	.	8cc#\J)	.	.	.
.	.	16ee\JJ	.	16ccc#\JJ	.	.	.	.	.	.	.	.	.	.	.
=47	=47	=47	=47	=47	=47	=47	=47	=47	=47	=47	=47	=47	=47	=47	=47
4D\	.	4d\ 4dd	.	4d\ 4a 4ddd	.	4D/	-men.	4A/	-men.	4d\	-men	4dd\	-men.	1ryy	1ryy
4r	.	4r	.	4r	.	4r	.	4r	.	4r	.	4r	.	.	.
!	!	!LO:N:vis=4	!	!	!	!	!	!	!	!	!	!	!	!	!
2r	.	2r	.	2r	.	2r	.	2r	.	2r	.	2r	.	.	.
==	==	==;;	==	==;;	==	==	==	==	==	==	==	==	==	==	==
*-	*-	*-	*-	*-	*-	*-	*-	*-	*-	*-	*-	*-	*-	*-	*-
!!!RDF**dynam: p = p&colon;
!!!RDF**kern: | = vertical stroke
!!!system-decoration: [(s1,s2)][(s3,s4,s5,s6)][(s7,s8)][(s9)]
!!!ENC: Andrzej Kubiczek
!!!END: 2020-08-18
!!!ENC: Urszula Świątek
!!!END: 2022-02-24
